assets/images/Google.svg

<svg width="29" height="28" viewBox="0 0 29 28" fill="none" xmlns="http://www.w3.org/2000/svg">
<g id="Google ">
<g id="Vector">
<path d="M28.2277 11.2581H27.1V11.2H14.5V16.8H22.4121C21.2578 20.0599 18.1561 22.4 14.5 22.4C9.8611 22.4 6.1 18.6389 6.1 14C6.1 9.3611 9.8611 5.6 14.5 5.6C16.6413 5.6 18.5894 6.4078 20.0727 7.7273L24.0326 3.7674C21.5322 1.4371 18.1876 0 14.5 0C6.7685 0 0.5 6.2685 0.5 14C0.5 21.7315 6.7685 28 14.5 28C22.2315 28 28.5 21.7315 28.5 14C28.5 13.0613 28.4034 12.145 28.2277 11.2581Z" fill="#FFC107"/>
<path d="M2.1142 7.4837L6.7139 10.857C7.9585 7.7756 10.9727 5.6 14.5 5.6C16.6413 5.6 18.5894 6.4078 20.0727 7.7273L24.0326 3.7674C21.5322 1.4371 18.1876 0 14.5 0C9.1226 0 4.4592 3.0359 2.1142 7.4837Z" fill="#FF3D00"/>
<path d="M14.5 28C18.1162 28 21.402 26.6161 23.8863 24.3656L19.5533 20.699C18.1005 21.8039 16.3252 22.4014 14.5 22.4C10.8586 22.4 7.7667 20.0781 6.6019 16.8378L2.0365 20.3553C4.3535 24.8892 9.0589 28 14.5 28Z" fill="#4CAF50"/>
<path d="M28.2277 11.2581H27.1V11.2H14.5V16.8H22.4121C21.8599 18.3515 20.8653 19.7072 19.5512 20.6997L19.5533 20.699L23.8863 24.3656C23.5797 24.6442 28.5 21 28.5 14C28.5 13.0613 28.4034 12.145 28.2277 11.2581Z" fill="#1976D2"/>
</g>
</g>
</svg>

<svg xmlns="http://www.w3.org/2000/svg" width="29" height="28" fill="none"><path fill="#FFC107" d="M28.228 11.258H27.1V11.2H14.5v5.6h7.912c-1.154 3.26-4.256 5.6-7.912 5.6a8.4 8.4 0 0 1 0-16.8c2.141 0 4.09.808 5.573 2.127l3.96-3.96C21.533 1.437 18.188 0 14.5 0 6.769 0 .5 6.269.5 14c0 7.732 6.269 14 14 14 7.732 0 14-6.268 14-14 0-.939-.097-1.855-.272-2.742Z"/><path fill="#FF3D00" d="m2.114 7.484 4.6 3.373A8.396 8.396 0 0 1 14.5 5.6c2.141 0 4.09.808 5.573 2.127l3.96-3.96C21.533 1.437 18.188 0 14.5 0 9.123 0 4.46 3.036 2.114 7.484Z"/><path fill="#4CAF50" d="M14.5 28c3.616 0 6.902-1.384 9.386-3.634l-4.333-3.667A8.337 8.337 0 0 1 14.5 22.4c-3.641 0-6.733-2.322-7.898-5.562l-4.566 3.517C4.354 24.89 9.06 28 14.5 28Z"/><path fill="#1976D2" d="M28.228 11.258H27.1V11.2H14.5v5.6h7.912a8.429 8.429 0 0 1-2.86 3.9l.001-.001 4.333 3.667C23.58 24.644 28.5 21 28.5 14c0-.939-.097-1.855-.272-2.742Z"/></svg>
